X: 69
T: O'CAROLAN'S LAMENT
B: O'Neill's 69
M: 3/4
L: 1/8
Z: Transcribed by John Chambers <jc@trillian.mit.edu>
N: "Mournful"
K:Dm
(FG) \
| A2 (A>B AG) | A2 d2 (F>G) | A2 (A>B A>^F) | G4 (=F>G) |
| A2 (A>B AG) | A2 d2 (d>e) | f2 e>d ^ce | d4 ||
|| (d>e) \
| f2 (e>d ^ce) | d=c A2 (d>e) | f2 (e>d ^ce) | d4 (d>e) |
| f2 (e>d ^ce) | d=c A2 ^FG | A2 G=F (E>F) | D4 ||


